X:45
T:Mulqueeneys
Z:robin.beech@mcgill.ca
R:hornpipe
M:4/4
L:1/8
K:G
(3GBd g2 fedf | eA^ce d2gf | (3efe ce dGBd | cBAG E2D2 | (3GBd g2 fedf |
eA^ce d2gf | e2ce dGBd | cAFA G2D2 :: (3GBd g2 (3GBd g2 | (3GBd gd eB d2 | (3DFA f2 (3DFA f2 |
(3DFA fe (3ded (3cBA | (3GBd g2 (3GBd g2 | (3GBd gd eBdg | f2ed eA^ce |1 dgfe (3ded (3cBA :|2 dgfe defg |:
a2ab afab | afab a2fe | defg adfa | bfge defg |
a2ab afab | afab a2fe | defd (3Bcd AF |1G2 (3Bcd defg  :|2 G2 (3Bcd (3gfe (3dBA |]
